X:1
T:O Holy Night [D,w]
C:Music: Adolphe Charles Adam, Words: John S. Dwight
S:MySheetMusic.com
Z:ABC by Thornton Rose, December 2001
N:Original score in C.
M:6/8
L:1/8
K:D
F3 F2 F | A3- A2 A | B2 B G2 B | d3- d2 z | A2
w:O Ho-ly night,_ the stars are bright-ly shin_ ing
A F2 E | D3 F2 G | A3 G2 E | D3- D3- | D3- D z2 |
w:It is the night of our dear sav-ior's birth.___
F3 F2 F | A3- A2 A | B2 B G2 B | d3- d2 z | A2
w:Long lay the world_ in sin and err-or pin_ ing,
A ^G2 F | c3 A2 B | c3 d2 c | F3- F3- | F2 z z2
w:'Til he ap-peared and the soul felt it's worth.__
A | A3 B3 | E3 A3 | B2 A d2 F | B3 A2
w:A thrill of hope, the wea-ry soul re-joi-ces,
A | A3 B3 | E3 A3 | B2 A d2 F | A3- A2 z ||
w:For yon-der breaks a new and glor-ious morn._
d3- d3- | d2 z c2 B | c3- c3- | c2 z
w:Fall__ on your knees.__
c3 | c3- c3- | c z B B2 B | d3- d3- | d3 z2
w:Oh, hear__ the an-gels' voi_ ces.
d | (f3- f3 | e3- e2) A | d3- d3- | d2 z
w:Oh, night___ di-vine.__
(c2 B) | A3- A3- | A z A B2 A | A3- A3- | A2 z
w:Oh,_ night__ when Christ was born.__
d3 | e3- e3- | e2 z z2 A | (a3- a3- | a2 g f2) e | d3- d2 z |
w:Oh, night.__ Oh, ho____ ly night._
c3 d2 e | d3- d3- | d3- d z2 :|
w:Oh, night di-vine.___
%
W:2. Truly He taught us to love one another,
W:His law is love, and His gospel is peace.
W:Chains he shall break, for the slave is our brother.
W:And in his name all oppression shall cease.
W:Sweet hymns of joy in grateful chorus raise we,
W:With all our hearts we praise His holy name.
W:Christ is the Lord. Oh, praise his name forever.
W:His power and glory ever more proclaim.
W:His power and glory ever more proclaim.

